X: 26587
T: Mick Lynch's
R: slide
M: 12/8
K: Gmajor
|:g2e|"G" d2B G2D "C" E2D G2B|"D" ABA AGA "G" BdB "D" A2B|
"G" d2B G2D "C" E2D G2B|"D" ~A3 ABA "G" G3:|
|:GAB|"C" c3 cBA "G" B3 BAG|"Am" A3 AGA "D" ded d2B|
"C" c3 cBA "G" B3 BAG|"D" A2G "C" E2F "G" G3:|

